X: 1
T: Mystery, The
M: 4/4
L: 1/8
R: reel
K: Gmaj
egdB ~A3B|~G3B A2 (3Bcd|e2dB ~A3B|GEDE GA (3Bcd|
egdB ~A3B|~G3B A2 (3Bcd|e2dB AcBA|GEDE GBdc|]
BG~G2 GEDG|BGAB GEDG|EAAG AEGA|(3Bcd ed gedc|
BG~G2 GEDG|BGAB GEDG|EAAG AEGA|(3Bcd ed gedB|]
~G3E DEGB|dBGB AE~E2|GAGE DEGF|GBdB (3ABA G2|
~G3E DEGB|dBGB AE~E2|GFGE DEGF|GBdB (3ABA G2|]
gede g2ag|egde ge~e2|gede g2ag|egde ~g3a|
gede g2ag|egde ge~e2|~g3e a2ba|geeg b2ag|]
